packages/symbols/svgs/outline/comment-outline.svg

<svg width="24" height="24" viewBox="0 0 24 24" fill="none" xmlns="http://www.w3.org/2000/svg">
<g clip-path="url(#clip0_1150_5580)">
<path fill-rule="evenodd" clip-rule="evenodd" d="M20.1483 9.33569C20.5003 8.91009 21.1306 8.8504 21.5562 9.20237C23.0198 10.4127 24 12.0851 24 14C24 15.7143 23.2146 17.2355 21.9999 18.4032V22C21.9999 22.3466 21.8205 22.6684 21.5257 22.8506C21.2309 23.0328 20.8627 23.0494 20.5527 22.8944L16.5516 20.8939C16.0495 20.9623 15.5316 21 14.9999 21C11.5658 21 8.47453 19.4984 6.95806 17.1422C6.65916 16.6778 6.79334 16.059 7.25775 15.7601C7.72216 15.4612 8.34094 15.5954 8.63984 16.0598C9.70937 17.7216 12.0861 19 14.9999 19C15.5322 19 16.0508 18.954 16.5536 18.8713C16.7614 18.8371 16.9748 18.8694 17.1632 18.9636L19.9999 20.382V17.96C19.9999 17.667 20.1285 17.3887 20.3515 17.1987C21.421 16.2878 21.9999 15.1654 21.9999 14C21.9999 12.8109 21.3961 11.6652 20.2817 10.7436C19.8561 10.3916 19.7964 9.76129 20.1483 9.33569Z" fill="black"/>
<path fill-rule="evenodd" clip-rule="evenodd" d="M0 9C0 3.83304 5.14444 0 11 0C16.8556 0 22 3.83304 22 9C22 14.167 16.8556 18 11 18C9.93909 18 8.91642 17.8728 7.94866 17.6442L3.44714 19.8945C3.13715 20.0494 2.76903 20.0328 2.47423 19.8506C2.17944 19.6684 2 19.3466 2 19V14.1675C0.762489 12.7271 0 10.9506 0 9ZM11 2C5.80956 2 2 5.33096 2 9C2 10.5052 2.62566 11.9221 3.72996 13.1015C3.90346 13.2868 4 13.5312 4 13.785V17.3821L7.38586 15.6895C7.60428 15.5803 7.8551 15.5549 8.09102 15.6179C9.00617 15.8623 9.98248 16 11 16C16.1904 16 20 12.669 20 9C20 5.33096 16.1904 2 11 2Z" fill="black"/>
</g>
<defs>
<clipPath id="clip0_1150_5580">
<rect width="24" height="24" fill="white"/>
</clipPath>
</defs>
</svg>

<svg width="24" height="24" viewBox="0 0 24 24" xmlns="http://www.w3.org/2000/svg"><g clip-path="url(#a)" fill-rule="evenodd" clip-rule="evenodd"><path d="M20.148 9.336a1 1 0 0 1 1.408-.134C23.02 10.412 24 12.085 24 14c0 1.714-.785 3.235-2 4.403V22a1 1 0 0 1-1.447.894l-4.001-2c-.503.068-1.02.106-1.552.106-3.434 0-6.525-1.502-8.042-3.858A1 1 0 0 1 8.64 16.06C9.71 17.722 12.086 19 15 19c.532 0 1.05-.046 1.554-.129a1 1 0 0 1 .61.093L20 20.382V17.96a1 1 0 0 1 .352-.761C21.42 16.288 22 15.165 22 14c0-1.19-.604-2.335-1.718-3.256a1 1 0 0 1-.134-1.408Z"/><path d="M0 9c0-5.167 5.144-9 11-9s11 3.833 11 9-5.144 9-11 9c-1.06 0-2.084-.127-3.051-.356l-4.502 2.25A1 1 0 0 1 2 19v-4.832C.762 12.728 0 10.95 0 9Zm11-7C5.81 2 2 5.331 2 9c0 1.505.626 2.922 1.73 4.101a1 1 0 0 1 .27.684v3.597l3.386-1.693a1 1 0 0 1 .705-.071C9.006 15.862 9.982 16 11 16c5.19 0 9-3.331 9-7s-3.81-7-9-7Z"/></g><defs><clipPath id="a"><path fill="#fff" d="M0 0h24v24H0z"/></clipPath></defs></svg>
